X: 12001
T: Eoin's Welcome
R: reel
M: 4/4
K: Eminor
|:e2BG dGBG|dGBG AE (3EEE|e2BG dGBG|AcBA GABd|
e2BG dGBG|dGBG AE (3EEE|GBAc BdcB|AGFG E4:|
|:e2de g2bg|edBA GABd|e2de g2ba|gedB A2Bd|
e2de g2bg|edBA GABd|c2cA B2BG|AGFG E4:|

